X:2

T:Barren Rocks of Aden

M:2/4

L:1/8

R:March

S:Morison – Highland Airs and Quicksteps, vol. II, No. 37  (c. 1882)

Z:AK/Fiddler’s Companion

K:D

e2 | f>g fe | df A/A/d | ce A/A/e | f>e d>e | f>g f>e | df A/A/d | ce A/A/f | d2 d/e/f/g/ :|

a>f df | ef A/A/f | ge ce | df A/A/f/g/ | a>f d>f | ef A/A/f/g/ | eA ca | d2d2 ||

{e/f/g/}a>f df | ef A/A/f/g/ | ge ce | df A/A/f/g/ | af df | e/e/a/f/ A/A/f/g/ | eA c/d/e/a/ | d2d2 ||

                       

BARRES D' LA PRISON, LES (Prison Bars). Cajun, Country Blues (3/4 time). USA, Louisiana. G Major (Francois): D Major (Greenblatt). Standard tuning. One part (Francois): AABB (Greenblatt). An earlier version of this song, a blues tune from the black community between Eunice and Basile, Louisiana, is attributed to Douglas Bellard, according to Raymond Francois (1990). Source for notated version: Canray Fontenot (La.) [Francois]. R. Francois, 1990; pgs. 31-32. Greenblatt, 1985; pg. 36. Arhoolie Records AR-1070, Canray Fontenot.

           

BARRHEAD. Canadian, Jig. Canada, Cape Breton. A Major. Standard tuning. AABB’. Composed by Cape Breton fiddler and composer Dan R. MacDonald (1911-1976). Cameron (Trip to Windsor), 1994; pg. 42.

                       

BARRING OF THE DOOR, THE. English, Jig. G Major. Standard tuning. AA. Aird (Selection of Scotch, English Irish and Foreign Airs), vol. II, c. 1785; pg. 3, No. 8.

